images/problem-sqr/circle-family.svg

<?xml version="1.0" encoding="UTF-8" standalone="no"?>
<svg width="100px" height="100px" viewBox="0 0 100 100" version="1.1" xmlns="http://www.w3.org/2000/svg" xmlns:xlink="http://www.w3.org/1999/xlink" xmlns:sketch="http://www.bohemiancoding.com/sketch/ns">
    <!-- Generator: Sketch 3.0.4 (8054) - http://www.bohemiancoding.com/sketch -->
    <title>family</title>
    <desc>Created with Sketch.</desc>
    <defs></defs>
    <g id="Page-1" stroke="none" stroke-width="1" fill="none" fill-rule="evenodd" sketch:type="MSPage">
        <g id="square" sketch:type="MSLayerGroup" transform="translate(-306.000000, -321.000000)">
            <g id="Group" transform="translate(41.000000, 84.000000)" sketch:type="MSShapeGroup">
                <g id="family" transform="translate(265.000000, 237.000000)">
                    <circle id="Oval-6" fill="#7C77B9" cx="50" cy="50" r="50"></circle>
                    <g id="Group" transform="translate(22.580645, 16.666667)" fill="#FFFFFF">
                        <ellipse id="Oval" cx="18.1080645" cy="6.81774194" rx="6.81774194" ry="6.81774194"></ellipse>
                        <ellipse id="Oval" cx="35.85" cy="6.81774194" rx="6.81774194" ry="6.81774194"></ellipse>
                        <path d="M41.6327957,52.05 C41.5623656,52.0553763 41.4924731,52.0586022 41.4204301,52.0586022 C39.9639785,52.0586022 38.7784946,50.8731183 38.7784946,49.4155914 C38.7784946,41.1607527 43.9575269,37.7252688 44.177957,37.5827957 C44.2274194,37.5510753 44.2763441,37.5241935 44.3252688,37.4989247 C44.3268817,37.4978495 44.3295699,37.4962366 44.3317204,37.4946237 C44.3252688,37.4629032 44.3188172,37.4322581 44.3112903,37.4005376 C43.1758065,36.4360215 42.45,35.0021505 42.45,33.3989247 C42.45,32.6274194 42.6215054,31.8973118 42.9215054,31.2370968 C42.8107527,30.7698925 42.7155914,30.3704301 42.6413978,30.0645161 L42.6413978,24.966129 C43.2317204,26.1946237 43.6903226,27.7360215 43.9591398,29.7215054 C44.911828,28.7510753 46.2376344,28.1473118 47.7021505,28.1473118 C48.1833333,28.1473118 48.6478495,28.2177419 49.0908602,28.3392473 C47.8516129,20.7155914 44.0827957,17.711828 40.2284946,15.3483871 C40.0935484,15.2655914 39.9516129,15.2021505 39.8096774,15.1462366 C39.0489247,14.6435484 38.1967742,14.2763441 37.3274194,14.0682796 C37.322043,14.0672043 37.316129,14.0666667 37.3107527,14.0655914 L35.6639785,15.794086 L33.9655914,14.083871 C33.0209677,14.316129 32.0978495,14.7376344 31.2913978,15.3129032 C31.2677419,15.3263441 31.2424731,15.3333333 31.2193548,15.3478495 C29.7080645,16.2741935 28.2107527,17.2989247 26.8747312,18.6602151 C25.5430108,17.2413978 24.0064516,16.1311828 22.4172043,15.155914 C22.183871,15.011828 21.9354839,14.922043 21.6822581,14.8586022 C21.0623656,14.5112903 20.394086,14.2494624 19.7172043,14.0833333 L18.0188172,15.7935484 L16.372043,14.0650538 C16.3666667,14.066129 16.3607527,14.0666667 16.3553763,14.0677419 C15.4865591,14.2758065 14.6349462,14.6430108 13.8741935,15.1451613 C13.7306452,15.2010753 13.5892473,15.2645161 13.4543011,15.3478495 C9.41344086,17.8263441 5.72419355,21.2349462 5.05645161,28.7392473 C5.77580645,28.3623656 6.59086022,28.1462366 7.45752688,28.1462366 C8.5188172,28.1462366 9.50537634,28.4672043 10.327957,29.0155914 C10.4543011,27.6946237 10.6978495,26.5741935 11.0413978,25.6123656 L11.0413978,29.5897849 C12.0306452,30.5360215 12.6505376,31.8650538 12.6505376,33.3387097 C12.6505376,34.6612903 12.1473118,35.8645161 11.3301075,36.7822581 C11.3602151,36.8709677 11.3870968,36.9607527 11.422043,37.0467742 C11.4037634,37.1844086 11.3908602,37.3231183 11.3908602,37.4650538 L11.3908602,37.7677419 C11.4155914,37.7876344 11.4424731,37.8075269 11.4666667,37.827957 C12.4236559,38.5376344 16.5344086,42.011828 16.5344086,49.3182796 C16.5344086,50.7634409 15.3586022,51.9397849 13.9129032,51.9397849 C13.3602151,51.9397849 12.8483871,51.7682796 12.4236559,51.4752688 C12.4053763,51.5215054 12.3854839,51.5682796 12.3650538,51.6145161 L12.3639785,64.3150538 C12.3639785,64.55 12.3344086,64.7768817 12.2844086,64.9962366 C12.8532258,65.5774194 13.644086,65.9397849 14.5209677,65.9397849 C16.2489247,65.9392473 17.6494624,64.5392473 17.6494624,62.8112903 L17.6456989,41.0591398 C17.7693548,41.0655914 17.8924731,41.0747312 18.0177419,41.0747312 C18.0419355,41.0747312 18.0666667,41.072043 18.0908602,41.0715054 L18.0897849,62.8112903 C18.0897849,64.5392473 19.4903226,65.9397849 21.2182796,65.9397849 C22.9456989,65.9397849 24.3462366,64.5392473 24.3462366,62.811828 L24.3473118,37.6215054 C24.3870968,37.5456989 24.4258065,37.4698925 24.4629032,37.3924731 C24.5016129,37.394086 24.5403226,37.4037634 24.5790323,37.4037634 C24.5913978,37.4037634 24.6048387,37.4037634 24.6166667,37.4032258 C25.4005376,37.3924731 26.0973118,37.0403226 26.5752688,36.4924731 C26.744086,36.6435484 26.9344086,36.7725806 27.1397849,36.8774194 C26.044086,41.8327957 24.8231183,47.6306452 24.8177419,48.9 C24.8123656,49.9403226 26.6887097,50.8317204 29.3344086,51.3930108 L29.3344086,62.811828 C29.3344086,64.5397849 30.7349462,65.9397849 32.4623656,65.9397849 C34.1903226,65.9397849 35.5908602,64.5392473 35.5908602,62.8112903 L35.5908602,52.0252688 C35.7376344,52.0258065 35.8870968,52.0258065 36.033871,52.0247312 L36.0327957,62.8112903 C36.0327957,64.5392473 37.4333333,65.9392473 39.1612903,65.9397849 C40.8892473,65.9397849 42.2887097,64.5397849 42.2887097,62.811828 L42.2897849,57.5983871 L40.6489247,57.5983871 L41.6327957,52.05 L41.6327957,52.05 Z" id="Shape"></path>
                        <ellipse id="Oval" cx="7.75322581" cy="33.022043" rx="3.98978495" ry="3.98978495"></ellipse>
                        <path d="M14.2317204,50.6580645 C15.0155914,50.6580645 15.65,50.0231183 15.65,49.2392473 C15.65,42.4016129 11.8473118,39.2795699 11.0290323,38.6865591 C10.7532258,38.4397849 10.3956989,38.194086 9.91989247,37.9349462 C9.55645161,37.7317204 9.16666667,37.5790323 8.76989247,37.4811828 L7.77580645,38.4817204 L6.81129032,37.4693548 C6.80860215,37.4704301 6.80483871,37.4715054 6.80215054,37.4725806 C6.18172043,37.6204301 5.58172043,37.9134409 5.07311828,38.3134409 C5.03010753,38.3349462 4.98655914,38.3521505 4.94569892,38.377957 C4.75053763,38.5037634 0.167741935,41.5451613 0.167741935,49.0413978 C0.167741935,49.8247312 0.802150538,50.4602151 1.58655914,50.4602151 C2.36935484,50.4602151 3.00483871,49.8247312 3.00483871,49.0413978 C3.00483871,47.3376344 3.28924731,45.9424731 3.69139785,44.8053763 L3.69139785,49.7564516 C3.69139785,50.1725806 3.77150538,50.5623656 3.91451613,50.9193548 C3.90322581,50.9994624 3.89569892,51.0817204 3.89569892,51.1645161 L3.89731183,64.2360215 C3.89731183,65.2467742 4.71666667,66.0666667 5.72741935,66.066129 C6.73870968,66.066129 7.55752688,65.2467742 7.55752688,64.2360215 L7.55752688,53.2682796 C7.62956989,53.272043 7.70215054,53.2774194 7.77526882,53.2774194 C7.78870968,53.2774194 7.80376344,53.2763441 7.81774194,53.2758065 L7.81774194,64.2365591 C7.81774194,65.2473118 8.63655914,66.0666667 9.64784946,66.0666667 C10.6591398,66.0666667 11.4784946,65.2473118 11.4784946,64.2365591 L11.4795699,51.255914 C11.7188172,50.811828 11.8591398,50.3086022 11.8591398,49.7569892 L11.8591398,44.3247312 C12.3989247,45.566129 12.811828,47.1790323 12.811828,49.2392473 C12.8129032,50.0231183 13.4473118,50.6580645 14.2317204,50.6580645 L14.2317204,50.6580645 Z" id="Shape"></path>
                        <ellipse id="Oval" cx="47.5978495" cy="33.0817204" rx="4.04946237" ry="4.04946237"></ellipse>
                        <path d="M51.0553763,38.8268817 C50.7763441,38.5763441 50.4139785,38.3268817 49.9306452,38.0634409 C49.561828,37.8575269 49.1650538,37.7021505 48.7629032,37.6037634 L47.7543011,38.6193548 L46.7763441,37.5924731 C46.7731183,37.5935484 46.7693548,37.5946237 46.7655914,37.5946237 C46.1365591,37.7451613 45.5284946,38.0430108 45.011828,38.4494624 C44.9677419,38.4709677 44.9241935,38.4876344 44.8827957,38.5145161 C44.6844086,38.6419355 40.0333333,41.7290323 40.0333333,49.3360215 C40.0333333,50.1311828 40.6774194,50.7758065 41.4725806,50.7758065 C42.2677419,50.7758065 42.9129032,50.1317204 42.9129032,49.3360215 C42.9129032,47.6075269 43.2010753,46.1913978 43.6091398,45.0376344 L43.6091398,47.9930108 L42.1376344,56.316129 L43.8172043,56.316129 L43.8193548,64.755914 C43.8193548,65.7822581 44.65,66.6145161 45.6763441,66.6139785 C46.7026882,66.6139785 47.5333333,65.7822581 47.5333333,64.755914 L47.5333333,56.316129 L47.7973118,56.316129 L47.7967742,64.755914 C47.7967742,65.7822581 48.6284946,66.6139785 49.6548387,66.6139785 C50.6811828,66.6139785 51.5129032,65.7822581 51.5129032,64.755914 L51.5129032,56.316129 L53.3602151,56.316129 L51.8994624,48.0629032 L51.8994624,44.5483871 C52.4467742,45.8086022 52.8666667,47.4451613 52.8666667,49.5360215 C52.8666667,50.3311828 53.5102151,50.9758065 54.3069892,50.9758065 C55.1021505,50.9758065 55.7462366,50.3311828 55.7462366,49.5360215 C55.7462366,42.5967742 51.8865591,39.427957 51.0553763,38.8268817 L51.0553763,38.8268817 Z" id="Shape"></path>
                    </g>
                </g>
            </g>
        </g>
    </g>
</svg>

<svg width="100" height="100" viewBox="0 0 100 100" xmlns="http://www.w3.org/2000/svg"><title>family</title><desc>Created with Sketch.</desc><g transform="translate(0 0)" fill="none"><circle fill="#7C77B9" cx="50" cy="50" r="50"/><g transform="translate(22.581 16.667)" fill="#fff"><ellipse id="Oval" cx="18.108" cy="6.818" rx="6.818" ry="6.818"/><ellipse id="Oval" cx="35.85" cy="6.818" rx="6.818" ry="6.818"/><path d="M41.633 52.05c-.07.005-.14.01-.213.01-1.456 0-2.642-1.187-2.642-2.644 0-8.255 5.18-11.69 5.4-11.833.05-.032.098-.06.147-.084l.007-.005-.02-.094c-1.136-.964-1.862-2.398-1.862-4 0-.773.172-1.503.472-2.163-.11-.467-.206-.867-.28-1.172v-5.1c.59 1.23 1.048 2.77 1.317 4.757.952-.97 2.278-1.575 3.742-1.575.48 0 .946.07 1.39.192-1.24-7.624-5.01-10.628-8.864-12.992-.134-.082-.276-.146-.418-.202-.76-.502-1.613-.87-2.483-1.078-.005 0-.01 0-.016-.002l-1.646 1.728-1.698-1.71c-.945.232-1.868.654-2.675 1.23-.022.012-.048.02-.07.034-1.512.926-3.01 1.95-4.345 3.312-1.332-1.42-2.87-2.53-4.458-3.504-.233-.144-.482-.234-.735-.297-.62-.35-1.288-.61-1.965-.777l-1.698 1.71-1.648-1.728-.017.003c-.868.208-1.72.575-2.48 1.077-.144.056-.286.12-.42.203-4.042 2.478-7.73 5.887-8.4 13.39.72-.376 1.536-.592 2.403-.592 1.06 0 2.047.32 2.87.87.126-1.32.37-2.442.713-3.404v3.978c.99.946 1.61 2.275 1.61 3.75 0 1.32-.503 2.525-1.32 3.442.03.09.057.18.092.265-.018.137-.03.276-.03.418v.303l.075.06c.957.71 5.067 4.184 5.067 11.49 0 1.445-1.175 2.622-2.62 2.622-.554 0-1.066-.172-1.49-.465l-.06.14v12.7c0 .235-.03.462-.08.68.57.582 1.36.945 2.237.945 1.73 0 3.13-1.4 3.13-3.13l-.004-21.75c.123.006.246.015.372.015l.073-.003v21.74c0 1.727 1.4 3.128 3.128 3.128 1.728 0 3.128-1.4 3.128-3.128v-25.19c.04-.076.08-.152.117-.23.04.002.077.012.116.012h.037c.784-.012 1.48-.364 1.958-.912.17.152.36.28.565.385-1.096 4.956-2.317 10.754-2.322 12.023-.006 1.04 1.87 1.932 4.516 2.493v11.42c0 1.727 1.4 3.127 3.128 3.127 1.728 0 3.13-1.4 3.13-3.13V52.026h.442V62.81c0 1.73 1.4 3.13 3.127 3.13 1.73 0 3.13-1.4 3.13-3.128v-5.214h-1.64l.983-5.548z" id="Shape"/><ellipse id="Oval" cx="7.753" cy="33.022" rx="3.99" ry="3.99"/><path d="M14.232 50.658c.784 0 1.418-.635 1.418-1.42 0-6.836-3.803-9.958-4.62-10.55-.277-.248-.634-.494-1.11-.753-.364-.203-.753-.356-1.15-.454l-.994 1.002-.965-1.013-.008.003c-.62.147-1.22.44-1.73.84-.042.022-.085.04-.126.065C4.75 38.504.168 41.545.168 49.04c0 .785.634 1.42 1.42 1.42.78 0 1.417-.635 1.417-1.42 0-1.702.284-3.098.686-4.235v4.95c0 .418.082.807.225 1.164-.012.08-.02.162-.02.245l.002 13.07c0 1.012.82 1.832 1.83 1.83 1.012 0 1.83-.818 1.83-1.83V53.27c.073.004.145.01.218.01l.043-.002v10.96c0 1.01.82 1.83 1.83 1.83 1.01 0 1.83-.82 1.83-1.83l.002-12.98c.24-.444.38-.947.38-1.5v-5.43c.54 1.24.952 2.853.952 4.913 0 .783.635 1.418 1.42 1.418z" id="Shape"/><ellipse cx="47.598" cy="33.082" rx="4.049" ry="4.049"/><path d="M51.055 38.827c-.28-.25-.64-.5-1.124-.764-.368-.205-.765-.36-1.167-.46l-1.01 1.016-.977-1.028c-.003.002-.007.003-.01.003-.63.15-1.238.448-1.754.854-.044.02-.088.038-.13.065-.198.127-4.85 3.214-4.85 10.82 0 .796.645 1.44 1.44 1.44.796 0 1.44-.643 1.44-1.44 0-1.727.29-3.144.697-4.297v2.955l-1.472 8.323h1.68v8.44c0 1.026.832 1.86 1.858 1.858 1.027 0 1.857-.832 1.857-1.858v-8.44h.264v8.44c0 1.026.83 1.858 1.858 1.858 1.026 0 1.858-.832 1.858-1.858v-8.44h1.847l-1.46-8.253v-3.515c.547 1.26.967 2.897.967 4.988 0 .795.643 1.44 1.44 1.44.795 0 1.44-.645 1.44-1.44 0-6.94-3.86-10.108-4.692-10.71z"/></g></g></svg>
